X:1
T:Arm for the Conflict
T:Arm for the Conflict
T:Daniel Brink Towner
T:Roscoe Gilmore Stott, 1908
T:Public Domain Courtesy of the Cyber Hymnal™
T:Public Domain Courtesy of the Cyber Hymnal™
C:Daniel Brink Towner
Z:Public Domain
Z:Courtesy of the Cyber Hymnal™
%%score ( 1 2 ) ( 3 4 )
L:1/8
Q:1/4=105
M:4/4
K:G
V:1 treble 
V:2 treble 
V:3 bass 
V:4 bass 
V:1
 [DG]3 [DG] [DG]3 [DF] | [CE]2 [DF]2 [DG]2 [DB]2 | [Gd]3 [Ge] [Gd]3 [Gc] | %3
w: 1.~There is war- fare|all a- round us;|There are foes who|
w: 2.~Sa- tan’s forc- es|march to meet us;|Sa- tan, craft- y|
w: 3.~Christ, our king, is|ev- er near us;|Ev- er- more His|
w: 4.~See! their ban- ners|fall be- fore us;|See the truce their|
 [GB]2 [FA]2 [GB]2 [Gd]2 | [Ge]2 [Gd]2 [Fc]2 [GB]2 | [Ad]2 [Ac]2 [GB]2 [FA]2 | G3 [FA] [GB]3 [FA] | %7
w: fain would wound us;|Yet what fear can|e’er con- found us,|If we trust the|
w: foe, would cheat us;|Yet what power can|e’er de- feat us,|If we trust the|
w: word will cheer us;|Call for strength and|He will hear us,|If we trust the|
w: her- alds bore us;|Vic- to- ry! O|shout the chor- us!|Hail, the bless- èd|
 [GB]2 [G^c]2 !fermata![Fd]2 ||"^Refrain" (3:2:1DE(3:2:1F x5/12 | G2 D2 B,2 D2 | G6 z2 | %11
w: king we serve!||||
w: king we serve!|Arm for the|con- flict, sol- diers|true,|
w: king we serve!||||
w: king we serve!||||
 [Fc]3 [Fc] [GB]3 [GB] | [FA]>G [DF]>[DG] [FA]4 | [FA]3 [FB] [FA]3 G | [DF]2 [^CE]2 [DF]2 [FA]2 | %15
w: ||||
w: Christ, our Lord is|king for- ev- er- more;|All our host will|shout with vic- tory,|
w: ||||
w: ||||
 [A^c]>[GB] [FA]>[EG] [DF]2 [^CE]2 | D6 (3:2:1DE(3:2:1F x5/12 | G2 D2 B,2 D2 | G6 z2 | %19
w: ||||
w: For our king goes on be-|fore! Christ is the|cap- tain whom we|serve,|
w: ||||
w: ||||
 [Fc]3 [Fc] [GB]3 [GB] | [FA]>G F>[DG] [FA]4 | [Gd]2 z2 [F^d]2 z2 | %22
w: |||
w: He it is who|leads a- gainst the foe;|Fight! Fight!|
w: |||
w: |||
 [Ge]2 [GB]>[GB] [Fd]2 (3[Ac][GB][FA] | [Gd]2 [GB]>G [Gd] !fermata![Fd]2 [Fd] | [Gg]6 |] %25
w: |||
w: fight in His might! Where He com-|mands us be rea- dy to|go.|
w: |||
w: |||
V:2
 x8 | x8 | x8 | x8 | x8 | x8 | G3 x5 | x6 || D(3:2:1EF | G2 D2 B,2 D2 | G6 x2 | x8 | x3/2 G/ x6 | %13
 x7 G | x8 | x8 | D6 D(3:2:1EF | G2 D2 B,2 D2 | G6 x2 | x8 | x3/2 G/ F3/2 x9/2 | x8 | x8 | %23
 x7/2 G/ x4 | x6 |] %25
V:3
 [G,B,]3 [G,C] [G,B,]3 [B,,A,] | [C,G,]2 [C,G,]2 [C,G,]2 [G,,G,]2 | [G,B,]3 [G,C] [G,B,]3 [G,E] | %3
 [G,D]2 [D,D]2 [G,D]2 [B,D]2 | C2 [B,D]2 [A,D]2 [G,D]2 | [F,C]2 [E,C]2 [D,D]2 [C,D]2 | %6
 [B,,D]3 [D,D] [G,D]3 [D,D] | [G,D]2 [E,A,]2 !fermata![D,A,]2 || D,(3:2:1E,F, x/12 | %9
 G,2 D,2 B,,2 D,2 | G,6 z2 | [D,A,]3 [D,D] [G,D]3 [G,D] | [CD]>[B,D] [A,C]>[G,B,] [D,D]4 | %13
 [D,D]3 [D,D] [C,C]3 [B,,C] | [A,,A,]2 [A,,A,]2 [D,A,]2 [D,D]2 | %15
 [G,D]>[G,D] [A,D]>[A,^C] DA, [A,,G,]2 | [D,F,]6 D,(3:2:1E,F, x/12 | G,2 D,2 B,,2 D,2 | G,6 z2 | %19
 [D,A,]3 [D,D] [G,D]3 [G,D] | [CD]>[B,D] [A,C]>[G,B,] [D,D]4 | [B,,D]2 z2 [B,,A,]2 z2 | %22
 [E,G,]2 [E,G,]>[E,G,] [D,A,]2 (3[D,D][D,D][C,D] | %23
 [B,,D]2 [G,,D]>[B,,D] [D,B,] !fermata![D,A,]2 [D,C] | [G,,G,B,]6 |] %25
V:4
 x8 | x8 | x8 | x8 | C2 x6 | x8 | x8 | x6 || (3:2:1D,E,(3:2:1F, x5/12 | G,2 D,2 B,,2 D,2 | G,6 x2 | %11
 x8 | x8 | x8 | x8 | x4 A,2 x2 | x6 (3:2:1D,E,(3:2:1F, x5/12 | G,2 D,2 B,,2 D,2 | G,6 x2 | x8 | %20
 x8 | x8 | x8 | x8 | x6 |] %25

